!!!!SEGMENT: pl-kk--kk-i-8--008_anonim--veni-sponsa-christi.krn
!!!cenid: 16xx:1149
!!!COM: Anonim
!!!COM-rismID: pe30004985
!!!CDT:
!!!CNT:
!!!OTL: Veni sponsa Christi
!!!PDT:
!!!AGN: Sacred
!!!YEC: Copyright 2022 Narodowy Instytut Fryderyka Chopina (https://polishscores.org)
!!!YEM: License CC-BY-4.0 (https://creativecommons.org/licenses/by/4.0)
!!!SMS-siglum: PL-Kk
!!!SMS-shelfmark: Kk.I.8
!!!SMS-shelfwork: 008 W
!!!SMS-variant:
!!!SMS-altvar:
!!!NIFC-rismSourceID: 1001148105
!!!NIFC-rismChildID: 1001148466
!!!NIFC-islandoraID: pl-kk:2296
!!!URL-pdf-islandora: https://repozytorium.nifc.pl/islandora/object/pl-kk%3A2296/datastream/PDF/view
!!!URL-scan: https://polish.musicsources.pl/pl/lokalizacje/galeria/rekopisy/6141 @EN{Scan on Polish Music Sources Website} @PL{Skany w portalu Dziedzictwo Muzyki Polskiej w otwartym dostępie}
!!!IIIF:
!!!ONB-nifc: UWAGA: A (skan 0005, s.4v), T1 (0028, s.4v), T2 (0052, s.4v), B (0075, s.4v). Następny utwór: Placare Christe servulis
!!!AIN: 1 alto 1 empty 1 tenor 1 vox
!!!key:
**kern	**text	**kern	**text	**kern	**text	**kern	**text
*part4	*	*part3	*	*part2	*	*part1	*
*staff4	*	*staff3	*	*staff2	*	*staff1	*
*Iempty	*	*Itenor	*	*Ialto	*	*Ivox	*
*I"[Basso]	*	*I"[Tenore]	*	*I"[Alto]	*	*I"[Canto]	*
*I'[B.]	*	*I'[T.]	*	*I'[A.]	*	*I'[C.]	*
*clefF3	*	*clefG2	*	*clefC3	*	*clefC2	*
*k[]	*	*k[]	*	*k[]	*	*k[]	*
*C:	*	*C:	*	*C:	*	*C:	*
*M2/1	*	*M2/1	*	*M2/1	*	*M2/1	*
=1-	=1-	=1-	=1-	=1-	=1-	=1-	=1-
!	!	!LO:TX:t=P:problem=kreska pseudotaktowa	!	!	!	!	!
00r	.	0dd\	Ve-	00r	.	0r	.
=2-	=2-	=2-	=2-	=2-	=2-	=2-	=2-
.	.	1b\	-ni	.	.	0g\	Ve-
.	.	1dd\	ſpon-	.	.	.	.
=3-	=3-	=3-	=3-	=3-	=3-	=3-	=3-
!	!	!LO:TX:t=P:problem=kreska pseudotaktowa	!	!	!	!LO:TX:t=P:problem=kreska pseudotaktowa	!
00r	.	1ee\	-sa	00r	.	1e\	-ni
.	.	2.dd\	Chri-	.	.	1g\	ſpon-
.	.	8cc\L	.	.	.	.	.
!	!	!LO:TX:t=P:problem=kreska pseudotaktowa	!	!	!	!	!
.	.	8b\J	.	.	.	.	.
=4-	=4-	=4-	=4-	=4-	=4-	=4-	=4-
.	.	4cc\	.	.	.	1a\	-sa
.	.	4dd\	.	.	.	.	.
.	.	2.ee\	.	.	.	.	.
.	.	.	.	.	.	2.g\	.
.	.	4dd\	.	.	.	.	.
.	.	4b\	.	.	.	.	.
!	!	!LO:TX:t=P:problem=kreska pseudotaktowa	!	!	!	!	!
.	.	4cc\	.	.	.	8f\L	Chri-
!	!	!	!	!	!	!LO:TX:t=P:problem=kreska pseudotaktowa	!
.	.	.	.	.	.	8e\J	.
=5-	=5-	=5-	=5-	=5-	=5-	=5-	=5-
0r	.	2dd\	.	0d\	Ve-	2f\	.
.	.	4cc\	.	.	.	1g\	.
.	.	4b\	.	.	.	.	.
!	!	!LO:TX:t=P:problem=kreska pseudotaktowa	!	!	!	!	!
.	.	1a/	.	.	.	.	.
.	.	.	.	.	.	2f\	-sti
=6-	=6-	=6-	=6-	=6-	=6-	=6-	=6-
!	!	!	!	!LO:TX:t=P:problem=kreska pseudotaktowa	!	!LO:TX:t=P:problem=kreska pseudotaktowa	!
0G\	Ve-	2.dd\	.	1B/	-ni	1g\	.
.	.	4cc\	.	.	.	.	.
!	!	!	!	!LO:LB:g=original	!	!	!
.	.	4b/	.	1d\	ſpon-	1r	.
.	.	4a/	.	.	.	.	.
!	!	!LO:TX:t=P:problem=kreska pseudotaktowa	!	!	!	!	!
.	.	2g/	-sti	.	.	.	.
=7-	=7-	=7-	=7-	=7-	=7-	=7-	=7-
!LO:TX:t=P:problem=kreska pseudotaktowa	!	!LO:TX:a:t=5	!	!LO:TX:t=P:problem=kreska pseudotaktowa	!	!	!
*	*	*	*	*	*	*	*ij
1E/	-ni	00r	.	1e\	-sa	0g\	Ve-
1G\	ſpon-	.	.	2.d\	Chri-	.	.
.	.	.	.	8c/L	.	.	.
.	.	.	.	8B/J	.	.	.
=8-	=8-	=8-	=8-	=8-	=8-	=8-	=8-
!	!	!	!	!	!	!LO:TX:t=P:problem=kreska pseudotaktowa	!
1A\	-sa	.	.	4c/	.	1e\	.
.	.	.	.	4d\	.	.	.
.	.	.	.	4e\	.	.	.
!	!	!	!	!LO:TX:t=P:problem=kreska pseudotaktowa	!	!	!
.	.	.	.	4c/	.	.	.
2.G\	Chri-	.	.	2d\	.	1g\	-ni
.	.	.	.	2e\	.	.	.
8F/L	.	.	.	.	.	.	.
8E/J	.	.	.	.	.	.	.
=9-	=9-	=9-	=9-	=9-	=9-	=9-	=9-
!	!	!	!	!	!	!LO:TX:t=P:problem=kreska pseudotaktowa	!
4F/	.	1r	.	2A/	-sti	1a\	ſpon-
4G\	.	.	.	.	.	.	.
4A\	.	.	.	1c\	ſpon-	.	.
!LO:TX:t=P:problem=kreska pseudotaktowa	!	!	!	!	!	!	!
4F/	.	.	.	.	.	.	.
*	*	*	*ij	*	*	*	*
1G\	.	0dd\	Ve-	.	.	4g\	-sa
.	.	.	.	.	.	4d/	.
!	!	!	!	!LO:TX:t=P:problem=kreska pseudotaktowa	!	!	!
.	.	.	.	2B/	-sa	1g\	Chri-
=10-	=10-	=10-	=10-	=10-	=10-	=10-	=10-
!LO:TX:t=P:problem=kreska pseudotaktowa	!	!	!	!	!	!	!
*	*	*	*	*lig	*	*	*
1D/	-sti	.	.	1A/	.	.	.
!	!	!	!	!	!	!LO:TX:t=P:problem=kreska pseudotaktowa	!
.	.	.	.	.	.	2f\	.
!	!	!LO:TX:t=P:problem=kreska pseudotaktowa	!	!	!	!	!
*	*	*	*	*col	*	*	*
1r	.	1b\	-ni	2.G/	.	1g\	-sti
*	*	*	*	*Xlig	*	*	*Xij
.	.	.	.	4A/	.	.	.
*	*	*	*	*Xcol	*	*	*
=11-	=11-	=11-	=11-	=11-	=11-	=11-	=11-
*	*ij	*	*	*	*	*	*
!	!	!	!	!	!	!LO:TX:t=P:problem=kreska pseudotaktowa	!
1G\	Ve-	1dd\	ſpon-	4B/	Chri-	1g\	ac-
.	.	.	.	4c/	.	.	.
!	!	!	!	!LO:TX:t=P:problem=kreska pseudotaktowa	!	!	!
.	.	.	.	2d\	.	.	.
!LO:TX:t=P:problem=kreska pseudotaktowa	!	!LO:TX:t=P:problem=kreska pseudotaktowa	!	!	!	!	!
1D/	-ni	1ee\	.	2G/	-sti	2g\	-ci-
.	.	.	.	1g\	Ve-	1cc\	-pe
=12-	=12-	=12-	=12-	=12-	=12-	=12-	=12-
1.G\	ſpon-	2.dd\	-sa	.	.	.	.
!	!	!	!	!LO:TX:t=P:problem=kreska pseudotaktowa	!	!	!
.	.	.	.	2g\	-ni	4b\	.
!	!	!LO:TX:t=P:problem=kreska pseudotaktowa	!	!	!	!	!
.	.	4cc\	.	.	.	4a\	.
!	!	!LO:LB:g=original	!	!	!	!LO:LB:g=original	!
.	.	4b/	.	2d\	ſpon-	1g\	.
.	.	8a/L	.	.	.	.	.
.	.	8b/J	.	.	.	.	.
!LO:TX:t=P:problem=kreska pseudotaktowa	!	!LO:TX:t=P:problem=kreska pseudotaktowa	!	!	!	!	!
2E/	-sa	2cc\	.	2e\	-sa	.	.
=13-	=13-	=13-	=13-	=13-	=13-	=13-	=13-
*	*	*	*	*lig	*	*	*
!	!	!	!	!	!	!LO:TX:t=P:problem=kreska pseudotaktowa	!
2.F/	Chri-	2a/	Chri-	1c\	[[a]]	1a\	co-
.	.	1ff\	.	.	.	.	.
4E/	.	.	.	.	.	.	.
!	!	!	!	!LO:TX:t=P:problem=kreska pseudotaktowa	!	!	!
1D/	.	.	.	1d\	.	4f\	-ro-
.	.	.	.	.	.	4g\	.
.	.	2ff\	.	.	.	4a\	.
.	.	.	.	.	.	4f\	.
!	!	!LO:TX:t=P:problem=kreska pseudotaktowa	!	!	!	!	!
*	*	*	*	*Xlig	*	*	*
=14-	=14-	=14-	=14-	=14-	=14-	=14-	=14-
!LO:TX:t=P:problem=kreska pseudotaktowa	!	!	!	!	!	!	!
1C/	-sti	2ee\	.	2G/	.	2g\	.
*	*Xij	*	*	*	*	*	*
!	!	!	!	!	!	!LO:TX:t=P:problem=kreska pseudotaktowa	!
.	.	2cc\	.	1g\	ac-	2e/	.
1r	.	4dd\	.	.	.	1d/	.
.	.	8cc\L	.	.	.	.	.
.	.	8b\J	.	.	.	.	.
!	!	!LO:TX:t=P:problem=kreska pseudotaktowa	!	!LO:TX:t=P:problem=kreska pseudotaktowa	!	!	!
.	.	2a/	.	2f\	-ci-	.	.
=15-	=15-	=15-	=15-	=15-	=15-	=15-	=15-
!	!	!LO:TX:t=P:problem=kreska pseudotaktowa	!	!	!	!	!
1r	.	1b\	-sti	2.g\	-pe	2G/	-na
*	*	*	*Xij	*	*	*	*ij
.	.	.	.	.	.	1g\	ac-
.	.	.	.	4f\	.	.	.
1c\	ac-	0r	.	4e\	.	.	.
.	.	.	.	4d\	.	.	.
!	!	!	!	!LO:LB:g=original	!	!	!
!	!	!	!	!	!	!LO:TX:t=P:problem=kreska pseudotaktowa	!
.	.	.	.	1c\	.	2e/	ci-
=16-	=16-	=16-	=16-	=16-	=16-	=16-	=16-
2A\	-ci-	.	.	.	.	1f\	-pe
1B-X\	-pe	.	.	1d\	co-	.	.
.	.	2r	.	.	.	2c/	co-
2c\	Co-	1cc\	ac-	1e\	-ro-	1g\	-ro-
!LO:LB:g=original	!	!	!	!	!	!	!
=17-	=17-	=17-	=17-	=17-	=17-	=17-	=17-
1A\	-ro-	.	.	.	.	.	.
!	!	!LO:TX:t=P:problem=kreska pseudotaktowa	!	!	!	!LO:TX:t=P:problem=kreska pseudotaktowa	!
.	.	2a/	-ci-	4d\	.	2f\	.
!	!	!	!	!LO:TX:t=P:problem=kreska pseudotaktowa	!	!	!
.	.	.	.	4c\	.	.	.
2G\	-na	2b/	-pe	2d\	.	1g\	-na
!LO:TX:t=P:problem=kreska pseudotaktowa	!	!	!	!	!	!	!
2E/	co-	2cc\	Co-	2e\	.	.	.
=18-	=18-	=18-	=18-	=18-	=18-	=18-	=18-
4F/	.	4a/	-ro-	4c\	.	2r	.
8E/L	.	4b/	.	4d\	.	.	.
8D/J	.	.	.	.	.	.	.
!	!	!	!	!	!	!LO:TX:t=P:problem=kreska pseudotaktowa	!
2.C/	.	4cc\	.	4e\	.	2g\	ac-
!	!	!LO:TX:t=P:problem=kreska pseudotaktowa	!	!LO:TX:t=P:problem=kreska pseudotaktowa	!	!	!
.	.	4dd\	.	4f\	.	.	.
!	!	!	!	!LO:TX:t=P:problem=kreska pseudotaktowa	!	!	!
.	.	2.ee\	.	1g\	-na	2e/	-ci-
4D/	.	.	.	.	.	.	.
4E/	.	.	.	.	.	1g\	-pe
!LO:TX:t=P:problem=kreska pseudotaktowa	!	!	!	!	!	!	!
4F/	.	8dd\L	.	.	.	.	.
!	!	!LO:TX:t=P:problem=kreska pseudotaktowa	!	!	!	!	!
.	.	8cc\J	.	.	.	.	.
=19-	=19-	=19-	=19-	=19-	=19-	=19-	=19-
4G\	.	4b\	.	1r	.	.	.
8F/L	.	4cc\	.	.	.	.	.
8E/J	.	.	.	.	.	.	.
!LO:TX:t=P:problem=kreska pseudotaktowa	!	!	!	!	!	!LO:TX:t=P:problem=kreska pseudotaktowa	!
!	!	!	!	!	!	!LO:TX:t=P:problem=# above	!
2D/	-na(m)	2dd\	.	.	.	2f#X\	co-
!	!	!LO:TX:t=P:problem=kreska pseudotaktowa	!	!	!	!	!
*	*	*	*	*	*ij	*	*
2G\	.	1b\,	-na	1d\	ac-	2.g\	-ro-
1G\	ac-	.	.	.	.	.	.
.	.	.	.	.	.	8f#\L	.
.	.	.	.	.	.	8e\J	.
=20-	=20-	=20-	=20-	=20-	=20-	=20-	=20-
*	*	*	*ij	*	*	*	*
.	.	2.g/	ac-	2B/	ci-	2d/	.
!LO:TX:t=P:problem=kreska pseudotaktowa	!	!	!	!LO:TX:t=P:problem=kreska pseudotaktowa	!	!	!
2E/	-ci-	.	.	2.c/	-pe	2e/	-na
*	*	*	*	*	*	*	*Xij
.	.	4g/	-ci-	.	.	.	.
2F/	-pe	2a/	-pe	.	.	2r	.
.	.	.	.	4A/	co-	.	.
!	!	!LO:TX:t=P:problem=kreska pseudotaktowa	!	!LO:TX:t=P:problem=kreska pseudotaktowa	!	!	!
2G\	co-	2b/	Co-	2.d\	-ro-	2g\	quam
=21-	=21-	=21-	=21-	=21-	=21-	=21-	=21-
1A\	-ro-	1cc\	-ro-	.	.	2e/	ti-
.	.	.	.	4c/	.	.	.
!	!	!	!	!	!	!LO:TX:t=P:problem=kreska pseudotaktowa	!
.	.	.	.	4c/	.	2f\	-bi
.	.	.	.	8B/L	.	.	.
.	.	.	.	8A/J	.	.	.
!	!	!LO:LB:g=original	!	!	!	!	!
!LO:TX:t=P:problem=kreska pseudotaktowa	!	!	!	!	!	!	!
1G\	-na(m)	2b,/	-na	2d\	.	2g\	Do-
*	*	*	*Xij	*	*	*	*
!	!	!LO:TX:t=P:problem=kreska pseudotaktowa	!	!LO:TX:t=P:problem=kreska pseudotaktowa	!	!	!
.	.	2dd\	quam	2G/	-na	2g\	-mi-
*	*	*	*	*	*Xij	*	*
!	!	!	!	!	!	!LO:LB:g=original	!
=22-	=22-	=22-	=22-	=22-	=22-	=22-	=22-
0r	.	2cc\	ti-	0r	.	2e,\	-n(us)
!	!	!LO:TX:t=P:problem=kreska pseudotaktowa	!	!	!	!LO:TX:t=P:problem=kreska pseudotaktowa	!
*	*	*	*	*	*	*	*ij
.	.	2a/	-bi	.	.	2f\	quam
.	.	2b/	Do-	.	.	2g\	ti-
!	!	!LO:TX:t=P:problem=kreska pseudotaktowa	!	!	!	!	!
.	.	2cc\	.	.	.	2a\	-bi
!!pagebreak:original
=23-	=23-	=23-	=23-	=23-	=23-	=23-	=23-
2r	.	4dd\	.	2r	.	2d/	Do-
.	.	4cc\	.	.	.	.	.
!LO:TX:t=P:problem=kreska pseudotaktowa	!	!	!	!LO:TX:t=P:problem=kreska pseudotaktowa	!	!LO:TX:t=P:problem=kreska pseudotaktowa	!
2D/	quam	4b/	.	2d\	quam	2f\	-mi-
.	.	8a/L	.	.	.	.	.
!	!	!LO:TX:t=P:problem=kreska pseudotaktowa	!	!	!	!	!
.	.	8b/J	.	.	.	.	.
2E/	ti-	2cc\	.	2.c/	ti-	2g\	-nus
*	*	*	*	*	*	*	*Xij
!	!	!LO:TX:t=P:problem=kreska pseudotaktowa	!	!	!	!	!
2F/	-bi	2a/	-mi-	.	.	2f\	prae-
.	.	.	.	4A/	-bi	.	.
=24-	=24-	=24-	=24-	=24-	=24-	=24-	=24-
2G\	D(o)-	2g/	-n(us)	2B/	.	2d/	-pa-
!LO:TX:t=P:problem=kreska pseudotaktowa	!	!LO:TX:t=P:problem=kreska pseudotaktowa	!	!LO:TX:t=P:problem=kreska pseudotaktowa	!	!LO:TX:t=P:problem=kreska pseudotaktowa	!
*	*	*	*ij	*	*	*	*
2A\	-(mi)-	2cc\	quam	2c/	Do-	2b\	-ra-
2D/	-n(us)	2a/	ti-	2.d\	-mi-	2f\	.
1d\	prae-	2b-X/	-bi	.	.	1f\	-vit
.	.	.	.	4d\	-n(us)	.	.
!	!	!	!	!LO:LB:g=original	!	!	!
=25-	=25-	=25-	=25-	=25-	=25-	=25-	=25-
.	.	2.a/	Do-	1A/	.	.	.
!LO:TX:t=P:problem=kreska pseudotaktowa	!	!	!	!	!	!LO:TX:t=P:problem=kreska pseudotaktowa	!
2c\	-pa-	.	.	.	.	2e/	.
!	!	!LO:TX:t=P:problem=kreska pseudotaktowa	!	!	!	!	!
.	.	4b-y/	-mi-	.	.	.	.
!	!	!LO:TX:t=P:problem=kreska pseudotaktowa	!	!LO:TX:a:t=4	!	!	!
4A\	.	1cc\	-nus	00r	.	4c/	in
*	*	*	*Xij	*	*	*	*
4B\	.	.	.	.	.	4d/	.
4c\	-ra-	.	.	.	.	4e/	ae-
4A\	.	.	.	.	.	4c/	.
=26-	=26-	=26-	=26-	=26-	=26-	=26-	=26-
4B\	.	2r	.	.	.	4d/	-ter-
4c\	.	.	.	.	.	4e/	.
2d\	.	1dd\	prae-	.	.	1f\	.
!LO:LB:g=original	!	!	!	!	!	!	!
2A,\	-vit	.	.	.	.	.	.
!	!	!LO:TX:t=P:problem=kreska pseudotaktowa	!	!	!	!	!
1A\	prae-	2cc\	-pa-	.	.	4e/	.
!	!	!	!	!	!	!LO:TX:t=P:problem=kreska pseudotaktowa	!
.	.	.	.	.	.	4d/	.
=27-	=27-	=27-	=27-	=27-	=27-	=27-	=27-
.	.	4a/	-ra-	.	.	2e/	-nu(m)
.	.	4b/	.	.	.	.	.
!LO:TX:t=P:problem=kreska pseudotaktowa	!	!	!	!	!	!	!
2F/	-pa-	4cc\	.	.	.	2a\	in
!	!	!LO:TX:t=P:problem=kreska pseudotaktowa	!	!	!	!	!
.	.	4a/	.	.	.	.	.
4G\	-ra-	4b/	.	2r	.	4d/	ae-
8F/L	.	4cc\	.	.	.	4e/	.
8E/J	.	.	.	.	.	.	.
!	!	!LO:TX:t=P:problem=kreska pseudotaktowa	!	!	!	!	!
4D/	.	2dd\	.	1d\	prae-	4f\	.
!LO:TX:t=P:problem=kreska pseudotaktowa	!	!	!	!	!	!LO:TX:t=P:problem=kreska pseudotaktowa	!
4E/	.	.	.	.	.	4g\	.
=28-	=28-	=28-	=28-	=28-	=28-	=28-	=28-
4F/	.	2a/	-vit	.	.	2f\	.
4G/	.	.	.	.	.	.	.
!	!	!	!	!LO:TX:t=P:problem=kreska pseudotaktowa	!	!	!
[2A\	.	1cc\	in	2c/	-pa-	4e/	.
!	!	!	!	!	!	!LO:TX:t=P:problem=kreska pseudotaktowa	!
.	.	.	.	.	.	4d/	.
2A\]	.	.	.	4A/	-ra-	2e\	-ter-
.	.	.	.	4B/	.	.	.
*	*	*	*	*	*	*custos:f	*
!LO:TX:t=P:problem=kreska pseudotaktowa	!	!LO:TX:t=P:problem=kreska pseudotaktowa	!	!	!	!	!
2F/	-vit	2a/	ae-	4c/	.	2f\	.
.	.	.	.	4A/	.	.	.
!	!	!	!	!	!	!LO:LB:g=original	!
=29-	=29-	=29-	=29-	=29-	=29-	=29-	=29-
2G\	in	4g/	-ter-	4B/	.	2d/	.
.	.	4a/	.	4c/	.	.	.
!	!	!	!	!LO:TX:t=P:problem=kreska pseudotaktowa	!	!	!
2G\	ae-	4b/	.	2d\	.	2.g\	.
.	.	4cc\	.	.	.	.	.
!	!	!LO:LB:g=original	!	!	!	!	!
1D/	-ter-	1dd\	.	1d\	-vit	.	.
.	.	.	.	.	.	4f\	.
.	.	.	.	.	.	4f\	.
.	.	.	.	.	.	8e/L	.
!	!	!	!	!	!	!LO:TX:t=P:problem=kreska pseudotaktowa	!
.	.	.	.	.	.	8d/J	.
=30-	=30-	=30-	=30-	=30-	=30-	=30-	=30-
!LO:TX:t=P:problem=kreska pseudotaktowa	!	!	!	!	!	!	!
1G\	-n(um)	2.b\	.	2r	.	1g\	.
*	*	*	*	*	*ij	*	*
.	.	.	.	1g\	prae-	.	.
!	!	!LO:TX:t=P:problem=kreska pseudotaktowa	!	!	!	!	!
.	.	4cc\	.	.	.	.	.
!	!	!LO:TX:t=P:problem=kreska pseudotaktowa	!	!	!	!	!
0r	.	1dd\	-nu(m)	.	.	2d,/	-nu(m)
.	.	.	.	2f\	-pa-	1a\	prae-
=31-	=31-	=31-	=31-	=31-	=31-	=31-	=31-
.	.	2r	.	4d\	-ra-	.	.
.	.	.	.	4e\	.	.	.
!	!	!	!	!	!	!LO:TX:t=P:problem=kreska pseudotaktowa	!
.	.	1dd\	prae-	4f\	.	2f\	-pa-
.	.	.	.	4d\	.	.	.
1r	.	.	.	2e\	.	2g\	-ra-
!	!	!LO:TX:t=P:problem=kreska pseudotaktowa	!	!LO:TX:t=P:problem=kreska pseudotaktowa	!	!	!
.	.	2cc\	-pa-	2f\	.	2a\	-vit
!!linebreak:original
=32-	=32-	=32-	=32-	=32-	=32-	=32-	=32-
2r	.	2a/	-ra-	2.d\	.	2f\	.
!	!	!LO:TX:t=P:problem=kreska pseudotaktowa	!	!	!	!LO:TX:t=P:problem=kreska pseudotaktowa	!
1G\	prae-	2b-X/	.	.	.	2g\	in
.	.	.	.	4c/	-vit	.	.
*	*	*	*	*	*Xij	*	*
.	.	2g/	-vit	2B-X/	ae-	2.d/	ae-
!LO:TX:t=P:problem=kreska pseudotaktowa	!	!LO:TX:t=P:problem=kreska pseudotaktowa	!	!LO:TX:t=P:problem=kreska pseudotaktowa	!	!	!
2F/	-pa-	2a/	in	2A/	-ter-	.	.
.	.	.	.	.	.	4e\	.
=33-	=33-	=33-	=33-	=33-	=33-	=33-	=33-
4D/	-ra-	2.b/	ae-	1d\	.	4f\	.
4E/	.	.	.	.	.	4g\	.
4F/	.	.	.	.	.	4a\	.
!LO:TX:t=P:problem=kreska pseudotaktowa	!	!	!	!	!	!LO:TX:t=P:problem=kreska pseudotaktowa	!
4D/	.	4b/	.	.	.	4f\	.
4E/	.	2cc\	-ter-	2G/	-nu(m)	1g\	.
4F/	.	.	.	.	.	.	.
!LO:TX:t=P:problem=kreska pseudotaktowa	!	!LO:TX:t=P:problem=kreska pseudotaktowa	!	!LO:TX:t=P:problem=kreska pseudotaktowa	!	!	!
*	*	*	*	*	*ij	*	*
2G\	.	2b/	-nu(m)	2d\	ae-	.	.
=34-	=34-	=34-	=34-	=34-	=34-	=34-	=34-
2C/	-vit	1r	.	2c/	.	2e/	-nu(m)
1F\	in	.	.	4A/	-ter-	1a\	prae-
.	.	.	.	4B/	.	.	.
.	.	2r	.	4c/	.	.	.
.	.	.	.	4A/	.	.	.
!LO:TX:t=P:problem=kreska pseudotaktowa	!	!	!	!LO:TX:t=P:problem=kreska pseudotaktowa	!	!LO:TX:t=P:problem=kreska pseudotaktowa	!
*	*	*	*ij	*	*	*	*
2G\	ae-	1dd\	prae-	2B/	.	2g\	-pa-
=35-	=35-	=35-	=35-	=35-	=35-	=35-	=35-
2.A\	-ter-	.	.	0c\	-num	2f\	-ra-
*	*	*	*	*	*Xij	*	*
!	!	!LO:TX:t=P:problem=kreska pseudotaktowa	!	!	!	!LO:TX:t=P:problem=kreska pseudotaktowa	!
.	.	2cc\	-pa-	.	.	2e/	-vit
!LO:TX:t=P:problem=kreska pseudotaktowa	!	!	!	!	!	!	!
4G\	.	.	.	.	.	.	.
!LO:TX:t=P:problem=kreska pseudotaktowa	!	!	!	!	!	!	!
1F\	.	4a/	-ra-	.	.	2f\	in
.	.	4b/	.	.	.	.	.
!	!	!	!	!	!	!LO:TX:t=P:problem=kreska pseudotaktowa	!
.	.	4cc\	.	.	.	2a\	ae-
!	!	!LO:TX:t=P:problem=kreska pseudotaktowa	!	!	!	!	!
.	.	4a/	.	.	.	.	.
=36-	=36-	=36-	=36-	=36-	=36-	=36-	=36-
2.G\	.	4b\	-vit	2r	.	0g\	-ter-
.	.	4cc\	.	.	.	.	.
!	!	!LO:TX:t=P:problem=kreska pseudotaktowa	!	!	!	!	!
.	.	2dd\	.	2.g\	in	.	.
4F/	.	.	.	.	.	.	.
4E/	.	2g/	in	.	.	.	.
4D/	.	.	.	4f\	.	.	.
!LO:LB:g=original	!	!	!	!	!	!	!
!LO:TX:t=P:problem=kreska pseudotaktowa	!	!	!	!	!	!	!
2C/	-nu(m)	1cc\	ae-	4e\	.	.	.
.	.	.	.	4d\	.	.	.
!	!	!	!	!LO:LB:g=original	!	!	!
=37-	=37-	=37-	=37-	=37-	=37-	=37-	=37-
!	!	!	!	!LO:TX:t=P:problem=dopisane u dołu strony	!	!	!
2c\	in	.	.	2e\	ae-	00g\;	-nu(m)
!	!	!LO:TX:t=P:problem=kreska pseudotaktowa	!	!	!	!	!
2B\	ae-	2dd\	.	2d\	-ter-	.	.
1c\	-ter-	1cc\	-ter-	1e\	.	.	.
=38-	=38-	=38-	=38-	=38-	=38-	=38-	=38-
0G\;	-nu(m).	0b\;	-num	0d\;	-nu(m)	.	.
*	*	*	*Xij	*	*	*	*
==	==	==	==	==	==	==	==
*-	*-	*-	*-	*-	*-	*-	*-
!!!system-decoration: [(s1,s2,s3,s4)]
!!!EED: Leszek Kubiak
!!!EEV: 2021-04-16
!!!ENC: Andrzej Gręziak
!!!END: 2021-04-12
